img/footer/call.svg

<svg width="40" height="40" viewBox="0 0 40 40" fill="none" xmlns="http://www.w3.org/2000/svg">
<g opacity="0.2">
<rect x="1.06274" y="0.393305" width="38.5439" height="38.5439" rx="19.272" stroke="white" stroke-width="0.786611"/>
<path d="M17.1075 22.7457C18.7766 24.3924 21.3191 26.7274 23.6961 26.7429C25.9297 26.7584 27.4142 25.0084 27.4142 25.0084L24.247 21.8337L21.6984 22.7697L17.1075 18.1677L18.0721 15.6426L15.0232 12.584C15.0232 12.584 13.283 14.0784 13.2555 16.2766C13.2272 18.6142 15.5269 21.1342 17.1075 22.7457Z" fill="white"/>
</g>
</svg>

<svg width="40" height="40" fill="none" xmlns="http://www.w3.org/2000/svg"><g opacity=".2"><rect x="1.063" y=".393" width="38.544" height="38.544" rx="19.272" stroke="#fff" stroke-width=".787"/><path d="M17.108 22.746c1.669 1.646 4.211 3.981 6.588 3.997 2.234.015 3.718-1.735 3.718-1.735l-3.167-3.174-2.549.936-4.59-4.602.964-2.525-3.049-3.059s-1.74 1.494-1.768 3.693c-.028 2.337 2.272 4.857 3.853 6.469z" fill="#fff"/></g></svg>
